X: 34109
T: Reel Des Sucres
R: reel
M: 4/4
K: Dmajor
ff|f2g2 f2d2|c2d2 Azff|f2g2 f2d2|c2d2 AAee|
ff|f2g2 f2d2|B2d2 Azff|f2g2 f2d2|B2d2 AAee|

